apps/documenteditor/main/resources/img/toolbar/2.5x/huge/btn-wrap-through.svg

<svg width="40" height="40" viewBox="0 0 40 40" fill="none" xmlns="http://www.w3.org/2000/svg">
<path fill-rule="evenodd" clip-rule="evenodd" d="M36 4H4V5H36V4ZM4 7H36V8H4V7ZM9 10H4V11H9V10ZM4 13H9V14H4V13ZM10 16H4V17H10V16ZM4 19H11V20H4V19ZM11 22H4V23H11V22ZM4 25H11V26H4V25ZM12 28H4V29H12V28ZM4 31H36V32H4V31ZM4 34H36V35H4V34ZM17 10H23V11H17V10ZM21 13H19V14H21V13ZM18 28H22V29H18V28ZM28 28H36V29H28V28ZM36 25H29V26H36V25ZM29 22H36V23H29V22ZM36 19H29V20H36V19ZM30 16H36V17H30V16ZM36 13H31V14H36V13ZM31 10H36V11H31V10ZM28.9763 12.0177C28.9763 12.0177 28.5415 16.7257 27.382 18.0708C26.6658 18.9017 25.4579 18.8201 24.6492 18.7655C24.476 18.7538 24.3212 18.7434 24.1934 18.7434C24.9181 18.9115 27.0921 19.9204 27.0921 22.7788C27.0921 25.9735 25.7877 29 24.4833 29C23.1788 29 20.8598 24.9646 20.8598 21.0974C20.8598 20.7776 20.8016 20.5929 20.7589 20.4578C20.7381 20.3918 20.721 20.3377 20.7162 20.2854C20.7288 20.5744 20.8068 22.9469 19.9902 22.9469C19.1592 22.9469 19.2546 20.4906 19.2647 20.2721C19.2583 20.3406 19.2116 20.4331 19.1575 20.5402C19.0751 20.7034 18.9756 20.9004 18.9756 21.0974C18.9756 24.9646 16.6566 29 15.3522 29C14.1927 29 12.7433 25.9734 12.7433 22.6106C12.7433 20.0248 14.5225 19.0902 15.291 18.6865C15.372 18.6439 15.4418 18.6073 15.4971 18.5752C15.0623 18.7434 13.468 19.0796 12.5983 18.0708C11.5838 16.7257 11.004 12.0177 11.004 12.0177C11.004 11.9943 11.0033 11.9652 11.0025 11.9313C10.9916 11.4781 10.96 10.1682 12.3085 10.1682C16.8015 10.1682 19.4104 16.7257 19.4104 17.5664C19.4104 17.5664 19.4104 16.2212 20.1351 16.2212C20.8598 16.2212 20.8598 17.5664 20.8598 17.5664C20.8598 16.7257 23.4687 10 27.8168 10C29.0875 10 29.0214 11.1631 28.9858 11.7898C28.9807 11.878 28.9763 11.9555 28.9763 12.0177Z" fill="black"/>
</svg>

<svg xmlns="http://www.w3.org/2000/svg" width="40" height="40" fill="none"><path fill="#000" d="M36 35H4v-1h32v1Zm0-3H4v-1h32v1Zm-24-3H4v-1h8v1Zm15.816-19c1.45 0 1.16 1.513 1.16 2.018 0 0-.435 4.707-1.594 6.052-.87 1.01-2.464.673-3.189.673.725.168 2.899 1.177 2.899 4.035 0 3.195-1.304 6.222-2.609 6.222-1.304 0-3.623-4.035-3.624-7.902 0-.505-.144-.673-.144-.841.001.026.14 2.69-.725 2.69s-.726-2.665-.724-2.69c0 .168-.29.505-.29.84 0 3.867-2.319 7.902-3.623 7.903-1.16 0-2.61-3.027-2.61-6.39 0-2.858 2.174-3.698 2.754-4.035-.435.168-2.029.504-2.898-.505-1.015-1.345-1.595-6.052-1.595-6.052 0-.337-.145-1.85 1.305-1.85 4.493 0 7.101 6.558 7.101 7.398 0 0 0-1.344.725-1.344.724 0 .724 1.344.724 1.344 0-.84 2.61-7.566 6.957-7.566Z"/><path fill="#000" d="M22 29h-4v-1h4v1Zm14 0h-8v-1h8v1Zm-25-3H4v-1h7v1Zm25 0h-7v-1h7v1Zm-25-3H4v-1h7v1Zm25 0h-7v-1h7v1Zm-25-3H4v-1h7v1Zm25 0h-7v-1h7v1Zm-26-3H4v-1h6v1Zm26 0h-6v-1h6v1ZM9 14H4v-1h5v1Zm12 0h-2v-1h2v1Zm15 0h-5v-1h5v1ZM9 11H4v-1h5v1Zm14 0h-6v-1h6v1Zm13 0h-5v-1h5v1Zm0-3H4V7h32v1Zm0-3H4V4h32v1Z"/></svg>
